public/images/products/alu-stark-net/benefit-3.svg

<svg fill="none" height="29" viewBox="0 0 26 29" width="26" xmlns="http://www.w3.org/2000/svg"><g fill="#fff"><path d="m7.08862 18.0098c-.96021-.0001-1.89312-.3195-2.65197-.9078-.75885-.5884-1.30057-1.4123-1.53992-2.3422-.03315-.1285-.01391-.2648.05348-.3791.0674-.1143.17743-.1971.30589-.2303.12847-.0331.26484-.0139.37912.0535s.19711.1774.23026.3059c.18384.7152.60027 1.349 1.18377 1.8015.5835.4526 1.30092.6983 2.03937.6985.13962-.0013.27904-.0111.41748-.0293.06529-.0084.13159-.0038.1951.0135s.12297.047.17497.0874c.05201.0403.09553.0906.12808.1478.03254.0572.05346.1203.06156.1856.00811.0653.00323.1316-.01435.195-.01758.0635-.04752.1228-.08809.1747-.04058.0518-.09098.0951-.14834.1274-.05735.0323-.12052.053-.18588.0608-.17921.0237-.35975.0361-.54053.0371z"/><path d="m17.2646 29c-2.3159-.0026-4.5362-.9238-6.1739-2.5614-1.6376-1.6376-2.55877-3.858-2.5614-6.1739 0-3.3379 1.9375-5.9434 3.9893-8.7031 1.7583-2.36527 3.5771-4.81058 4.2578-7.87604.0247-.11108.0865-.21042.1753-.28162.0888-.07119.1992-.10999.3129-.10999.1138 0 .2242.0388.313.10999.0888.0712.1506.17054.1753.28162.6812 3.06543 2.4995 5.51074 4.2578 7.87604 2.0518 2.7597 3.9893 5.3652 3.9893 8.7031-.0026 2.3159-.9238 4.5363-2.5614 6.1739-1.6377 1.6376-3.858 2.5588-6.174 2.5614zm0-23.42574c-.9824 2.37729-2.3114 4.59604-3.9438 6.58404-1.9497 2.623-3.7915 5.0996-3.7915 8.1064 0 2.0516.815 4.0191 2.2656 5.4697 1.4507 1.4507 3.4182 2.2657 5.4697 2.2657 2.0516 0 4.0191-.815 5.4698-2.2657 1.4506-1.4506 2.2656-3.4181 2.2656-5.4697 0-3.0068-1.8418-5.4834-3.7915-8.1064-1.6322-1.9881-2.9612-4.20684-3.9439-6.58404z"/><path d="m17.2649 25.5557c-1.1724-.0002-2.3114-.3901-3.238-1.1084-.9266-.7182-1.5881-1.7241-1.8807-2.8594-.0331-.1284-.0139-.2648.0535-.3791s.1775-.1971.3059-.2303c.1285-.0331.2649-.0139.3791.0535.1143.0674.1971.1775.2303.3059.2369.9207.7731 1.7364 1.5244 2.319.7512.5825 1.6749.8987 2.6255.8988.1798-.0015.3593-.0139.5376-.0371.1316-.0163.2642.0203.3688.1018s.1725.2012.1888.3328c.0163.1315-.0203.2642-.1018.3688s-.2012.1725-.3328.1888c-.219.0288-.4397.0438-.6606.0449z"/><path d="m7.0293 20.7617h-.0044c-1.86677-.0217-3.65005-.777-4.96451-2.1027-1.314463-1.3257-2.05456457-3.1154-2.06039-4.9823 0-2.7031 1.56006-4.80172 3.21143-7.02242 1.56401-1.82149 2.71952-3.95699 3.38868-6.262664.0247-.111082.08655-.21042.17532-.281617.08877-.071198.19916-.109999.31296-.109999s.22419.038801.31296.109999c.08877.071197.15062.170535.17532.281617.66911 2.307074 1.82439 4.444154 3.38823 6.267584.6206.83594 1.207 1.626 1.7202 2.45605.0347.05585.0581.11802.0688.18293.0107.06492.0085.13131-.0065.19536-.0151.06405-.0426.1245-.081.1779-.0385.05339-.0871.09867-.143.13325-.056.03457-.1183.05776-.1832.06822-.065.01047-.1313.00801-.1953-.00723s-.1244-.04296-.1777-.08158c-.0532-.03861-.0983-.08736-.1327-.14345-.4907-.794-1.065-1.56641-1.6724-2.38477-1.24857-1.53484-2.28262-3.23235-3.07372-5.04586-.79147 1.81203-1.82586 3.50793-3.07471 5.041-1.5498 2.085-3.01367 4.05368-3.01367 6.42578.00506 1.6034.64077 3.1405 1.76975 4.2791 1.12899 1.1386 2.66062 1.7873 4.26394 1.8059.06566.0003.13062.0135.19117.0389.06056.0254.11552.0625.16174.1091.04623.0466.08281.1019.10768.1627.02486.0608.0375.1258.03722.1915-.00029.0657-.01351.1306-.03891.1912-.02539.0605-.06246.1155-.10909.1617-.04664.0462-.10192.0828-.16269.1077-.06077.0248-.12585.0375-.19151.0372z"/></g></svg>

<svg width="26" height="29" viewBox="0 0 26 29" fill="none" xmlns="http://www.w3.org/2000/svg">
<path d="M7.08862 18.0098C6.12841 18.0097 5.1955 17.6903 4.43665 17.102C3.6778 16.5136 3.13608 15.6897 2.89673 14.7598C2.86358 14.6313 2.88282 14.495 2.95021 14.3807C3.01761 14.2664 3.12764 14.1836 3.2561 14.1504C3.38457 14.1173 3.52094 14.1365 3.63522 14.2039C3.7495 14.2713 3.83233 14.3813 3.86548 14.5098C4.04932 15.225 4.46575 15.8588 5.04925 16.3113C5.63275 16.7639 6.35017 17.0096 7.08862 17.0098C7.22824 17.0085 7.36766 16.9987 7.5061 16.9805C7.57139 16.9721 7.63769 16.9767 7.7012 16.994C7.76471 17.0113 7.82417 17.041 7.87617 17.0814C7.92818 17.1217 7.9717 17.172 8.00425 17.2292C8.03679 17.2864 8.05771 17.3495 8.06581 17.4148C8.07392 17.4801 8.06904 17.5464 8.05146 17.6098C8.03388 17.6733 8.00394 17.7326 7.96337 17.7845C7.92279 17.8363 7.87239 17.8796 7.81503 17.9119C7.75768 17.9442 7.69451 17.9649 7.62915 17.9727C7.44994 17.9964 7.2694 18.0088 7.08862 18.0098Z" fill="white"/>
<path d="M17.2646 29C14.9487 28.9974 12.7284 28.0762 11.0907 26.4386C9.4531 24.801 8.53193 22.5806 8.5293 20.2647C8.5293 16.9268 10.4668 14.3213 12.5186 11.5616C14.2769 9.19633 16.0957 6.75102 16.7764 3.68556C16.8011 3.57448 16.8629 3.47514 16.9517 3.40394C17.0405 3.33275 17.1509 3.29395 17.2646 3.29395C17.3784 3.29395 17.4888 3.33275 17.5776 3.40394C17.6664 3.47514 17.7282 3.57448 17.7529 3.68556C18.4341 6.75099 20.2524 9.1963 22.0107 11.5616C24.0625 14.3213 26 16.9268 26 20.2647C25.9974 22.5806 25.0762 24.801 23.4386 26.4386C21.8009 28.0762 19.5806 28.9974 17.2646 29ZM17.2646 5.57426C16.2822 7.95155 14.9532 10.1703 13.3208 12.1583C11.3711 14.7813 9.5293 17.2579 9.5293 20.2647C9.5293 22.3163 10.3443 24.2838 11.7949 25.7344C13.2456 27.1851 15.2131 28.0001 17.2646 28.0001C19.3162 28.0001 21.2837 27.1851 22.7344 25.7344C24.185 24.2838 25 22.3163 25 20.2647C25 17.2579 23.1582 14.7813 21.2085 12.1583C19.5763 10.1702 18.2473 7.95146 17.2646 5.57426V5.57426Z" fill="white"/>
<path d="M17.2649 25.5557C16.0925 25.5555 14.9535 25.1656 14.0269 24.4473C13.1003 23.7291 12.4388 22.7232 12.1462 21.5879C12.1131 21.4595 12.1323 21.3231 12.1997 21.2088C12.2671 21.0945 12.3772 21.0117 12.5056 20.9785C12.6341 20.9454 12.7705 20.9646 12.8847 21.032C12.999 21.0994 13.0818 21.2095 13.115 21.3379C13.3519 22.2586 13.8881 23.0743 14.6394 23.6569C15.3906 24.2394 16.3143 24.5556 17.2649 24.5557C17.4447 24.5542 17.6242 24.5418 17.8025 24.5186C17.9341 24.5023 18.0667 24.5389 18.1713 24.6204C18.2759 24.7019 18.3438 24.8216 18.3601 24.9532C18.3764 25.0847 18.3398 25.2174 18.2583 25.322C18.1768 25.4266 18.0571 25.4945 17.9255 25.5108C17.7065 25.5396 17.4858 25.5546 17.2649 25.5557V25.5557Z" fill="white"/>
<path d="M7.0293 20.7617H7.0249C5.15813 20.74 3.37485 19.9847 2.06039 18.659C0.745927 17.3333 0.00582543 15.5436 0 13.6767C0 10.9736 1.56006 8.87498 3.21143 6.65428C4.77544 4.83279 5.93095 2.69729 6.60011 0.391616C6.62481 0.280534 6.68666 0.181196 6.77543 0.109999C6.8642 0.038801 6.97459 0 7.08839 0C7.20219 0 7.31258 0.038801 7.40135 0.109999C7.49012 0.181196 7.55197 0.280534 7.57667 0.391616C8.24578 2.69869 9.40106 4.83577 10.9649 6.6592C11.5855 7.49514 12.1719 8.2852 12.6851 9.11525C12.7198 9.1711 12.7432 9.23327 12.7539 9.29818C12.7646 9.3631 12.7624 9.42949 12.7474 9.49354C12.7323 9.55759 12.7048 9.61804 12.6664 9.67144C12.6279 9.72483 12.5793 9.77011 12.5234 9.80469C12.4674 9.83926 12.4051 9.86245 12.3402 9.87291C12.2752 9.88338 12.2089 9.88092 12.1449 9.86568C12.0809 9.85044 12.0205 9.82272 11.9672 9.7841C11.914 9.74549 11.8689 9.69674 11.8345 9.64065C11.3438 8.84665 10.7695 8.07424 10.1621 7.25588C8.91353 5.72104 7.87948 4.02353 7.08838 2.21002C6.29691 4.02205 5.26252 5.71795 4.01367 7.25102C2.46387 9.33602 1 11.3047 1 13.6768C1.00506 15.2802 1.64077 16.8173 2.76975 17.9559C3.89874 19.0945 5.43037 19.7432 7.03369 19.7618C7.09935 19.7621 7.16431 19.7753 7.22486 19.8007C7.28542 19.8261 7.34038 19.8632 7.3866 19.9098C7.43283 19.9564 7.46941 20.0117 7.49428 20.0725C7.51914 20.1333 7.53178 20.1983 7.5315 20.264C7.53121 20.3297 7.51799 20.3946 7.49259 20.4552C7.4672 20.5157 7.43013 20.5707 7.3835 20.6169C7.33686 20.6631 7.28158 20.6997 7.22081 20.7246C7.16004 20.7494 7.09496 20.7621 7.0293 20.7618V20.7617Z" fill="white"/>
</svg>
